svg/u1f3d0.svg

<svg viewBox="0 0 128 128" xmlns="http://www.w3.org/2000/svg">
  <path d="M97.83,94.32l-23.68,17.09l-32.93,1.25l-11.61,1.73c0,0,6.43,3.92,12.7,6.27 c6.27,2.35,11.92,1.57,11.92,1.57s4.23,2.2,16.78,1.25c12.55-0.94,18.04-5.8,18.04-5.8l1.57,0.78c0,0,4.39-0.94,9.57-4.55 c5.18-3.61,15.74-13.78,19.92-25.25c4.56-12.54,4.55-24.62,3.29-33.09c-0.1-0.66-0.03-2.89-0.38-2.92 C118.86,52.25,98.26,94.03,97.83,94.32z" fill="#C5B3AF"/>
  <path d="M33.84,15.9l-14.59,7.84l-4.23,4.7l-9.1,19.6c0,0-0.63,1.25-0.63,2.67c0,1.41,0,3.61,0,3.61 S4.28,65.97,3.89,67.66c-0.47,2.04-0.47,4.23,0.47,5.96c0.94,1.73,7.37,16.94,7.37,16.94l6.12,12.08c0,0,2.35,3.76,5.33,6.74 s8.31,5.02,8.31,5.02s3.05,2.15,8,2.2c4.18,0.04,7.47-1.16,7.47-1.16s4.9,3.49,14.76,3.36c12.22-0.16,12.9-3.93,12.9-3.93 s7.18,1.27,17.53-5.48c10.35-6.74,15.72-19.93,15.72-19.93s4.55-1.57,7.53-7.68s8-21.17,8-26.19c0-3.53-1-10.57-4.57-18.14 c-1.35-2.86-3.02-5.1-5-7.42c-1.47-1.72-3.9-4.49-3.9-4.49s-2.06-3.51-3.16-4.77s-4.55-3.92-4.55-3.92l-16.78-9.1 c0,0-4.23-2.35-6.59-2.98C76.5,4.14,33.84,15.9,33.84,15.9z" fill="#D8CDC9"/>
  <path d="M99.4,31.43c-3.81,1.61-12.89,6.42-12.57,13.48s3.48,8.95,4.73,23.53 c1.25,14.59-1.41,23.68-0.47,24.94c0.94,1.25,7.71-1.32,11.9-7.09c3.92-5.41,6.77-16.9,6.77-16.9s4.7-1.57,8.64-8.93 c3.04-5.69,3.81-9.78,3.63-13.65c-0.12-2.66-3.06-11.82-7.46-15.61C110.82,27.98,103.86,29.55,99.4,31.43z" fill="#F2EEEC"/>
  <path d="M5.93,48.06c0,0,11.76,5.33,27.92,9.25s32.78,6.9,36.23,7.53c3.45,0.63,5.96-0.63,6.74-2.35 c0.78-1.73,0.91-11.37-1.72-14.83c-1.82-2.4-5.74-5.5-5.74-5.5l-28.31-5.08l-24.62-7.21l-1.41-1.41c0,0-3.76,3.61-6.12,8.47 S5.93,48.06,5.93,48.06z" fill="#F1EDEC"/>
  <path d="M5.26,54.32c0.86,0.64,34.67,10.14,34.67,10.14s38.52,6.68,38.52,7.45c0,0.77-1.67,10.02-6.04,12.71 c-4.37,2.7-25.98,0.54-33.51-1.03C17.33,79.11,3.85,68.58,3.85,68.58s-0.9-3.47-0.39-8.22C3.73,57.9,5.26,54.32,5.26,54.32z" fill="#F1EDEC"/>
  <path d="M6.03,76.28l13.23,8.09l27.09,7.06l29.28,0.26c0,0,1.8,2.44,1.41,4.24c-0.39,1.8-2.57,7.83-8.73,10.4 c-5.59,2.33-25.03,4.77-40.96-1.03c-14.12-5.14-16.82-12.46-19.39-18.23C5.32,81.13,6.03,76.28,6.03,76.28z" fill="#F1EDEC"/>
  <path d="M53.25,29.74l12.76-12.91l18.02-7.81c0,0,4.65,0.15,5.86,0.45s4.35,1.2,9.01,4.05 s7.87,7.24,7.87,7.24s-4.87-4.39-18.38,2.52S74.72,33.94,72.17,34.54c-2.55,0.6-7.92,0.15-11.71-0.75 C54.15,32.29,53.25,29.74,53.25,29.74z" fill="#F1EDEC"/>
  <path d="M20.7,23.53c0,0,1.63,2.07,6.21,3.16c4.57,1.09,9.04,0.22,9.04,0.22s1.31,1.63,5.45,2.5 c4.14,0.87,5.77-0.11,6.64-1.2c0.87-1.09,7.08-10.78,16.01-16.23s17.04-6.44,17.04-6.44s-5.26-2.62-12.77-2.19 S54.46,6.22,54.46,6.22l-3.59,0.33c0,0-5.55-0.65-12.42,2.29s-14.27,9.69-14.27,9.69L20.7,23.53z" fill="#F1EDEC"/>
  <path d="M66.85,41.32c0,0,6.68-1.89,9.36-3.29c2.68-1.4,11.48-5.87,11.48-5.87s-3.44,6.13-3.7,9.82 c-0.28,4,0.67,12.12,0.67,12.12l-1.91-1.08c0,0-4.67-4.45-6.45-5.86S66.85,41.32,66.85,41.32z" fill="#C5B3AF"/>
  <path d="M86.49,74.5c-0.21-0.02-21.01-1.85-55.79-10.38c-20.37-5-25.62-8.34-25.95-8.55 c0,0,0.26-0.59,0.4-1.86c0.13-1.27,0.15-2.56,0.15-2.56c0.08,0.05,6.79,4.19,26.38,8.99c34.44,8.45,54.96,10.26,55.16,10.28 L86.49,74.5z" fill="#9B8D8B"/>
  <path d="M61.73,94.28c-10.17,0-22.67-1.24-35.76-5.46C13.24,84.72,6.5,79.75,6,79.4c0,0,0.11-0.94-0.25-2.39 c-0.36-1.45-1.24-3.16-1.24-3.16c0.12,0.08,10.58,7.15,22.72,11.06c29.9,9.64,57.46,2.94,57.73,2.87l1,3.98 C85.28,91.94,75.7,94.28,61.73,94.28z" fill="#9B8D8B"/>
  <path d="M79.75,115.58c-3.27-1.87-5.8-4.61-5.83-4.64l-0.62-0.67l-0.91,0.12 c-0.15,0.02-15.38,1.98-36.79-3.91c-10.21-2.81-19.12-7.4-20.84-8.58c0,0,0.72,3.96,3.59,5.47c2.24,1.18,4.96,2.45,7.92,3.64 c0.23,0.85,0.99,3.56,2.46,6.12c2.28,3.96,8.08,5.15,8.08,5.15c-0.03-0.04-3.44-4.32-4.85-7.37c-0.36-0.79-0.62-1.49-0.82-2.11 c1.16,0.38,2.33,0.74,3.51,1.07c2.36,0.65,4.64,1.2,6.83,1.68c0.8,1.55,2.46,4.36,5.23,7.1c1.14,1.13,2.71,2.58,4.53,3.37 c4.07,1.76,7.74,1.36,7.74,1.36c-0.06-0.05-5.59-3.58-8.54-6.51c-1.11-1.1-2.92-3.29-3.64-4.3c13.09,2.26,22.32,1.66,25.15,1.38 c1.04,1.03,3.28,3.08,6.04,4.66c1.61,0.92,3.06,1.75,4.66,2.1c3.18,0.69,5.29-1.58,5.29-1.58 C87.92,119.11,83.36,117.63,79.75,115.58z" fill="#9B8D8B"/>
  <path d="M73.8,113.75l-2.33-3.25l1.16,1.63l-1.17-1.62c0.12-0.09,12.24-9.19,13.33-33.16 c1.08-23.98-8.09-33.19-8.19-33.28l2.76-2.89c0.43,0.41,10.6,10.36,9.42,36.36C87.61,103.57,74.37,113.34,73.8,113.75z" fill="#9B8D8B"/>
  <path d="M84.22,120.83l-1.36-3.43c0.79-0.13,20.28-3.84,24.57-39.48c3.29-27.33-12.39-49.99-12.55-50.21 l3.27-2.31c0.68,0.97,16.74,24.09,13.25,53C106.72,117.25,85.22,120.86,84.22,120.83z" fill="#9B8D8B"/>
  <path d="M94.47,25.4c-9.4,3.66-15.57,12.05-17.56,15.08c-3.41-0.26-13.69-1.18-25.77-3.56 c2.28-4.06,7.95-12.95,16.74-18.76c11.68-7.71,21.47-8.73,21.7-8.79s-2.9-3.06-5.76-2.47c-5.12,1.06-11.71,3.69-18.14,7.93 C55.2,21.76,49,32.36,47.05,36.08c-2.93-0.64-5.93-1.37-8.94-2.19c-0.95-0.26-1.87-0.52-2.77-0.77c1.41-3.49,4.55-10.58,8.43-15.35 C51.39,8.43,60.43,4.53,60.53,4.49c0,0-5.79-1.63-10.85,2.07c-2.92,2.14-6.05,5.06-9,8.68c-4.4,5.4-7.8,13.23-9.2,16.77 c-4.36-1.27-7.9-2.36-10.7-3.28c0.75-1.7,1.81-3.97,2.95-5.95c2.11-3.69,4.42-7.34,4.44-7.37c0,0-5.15,1.81-8.11,6.69 c-1.35,2.21-1.82,3.72-2.61,5.53c-0.48-0.16-0.87-0.35-1.31-0.32c-2.37,0.13-3.26,3.59-3.26,3.59c0.29,0.13,4.79,1.62,24.16,6.95 c20.38,5.6,40.65,6.82,40.85,6.83l1.26,0.07l0.63-1.09c0.06-0.1,6.22-10.54,16.19-14.42c8.4-3.27,15.4-1.99,15.47-1.98 c0,0-0.26-0.99-0.92-2.08c-0.49-0.8-1.88-1.61-1.88-1.61C108.31,23.48,104.15,21.64,94.47,25.4z" fill="#9B8D8B"/>
</svg>

<svg viewBox="0 0 128 128" xmlns="http://www.w3.org/2000/svg">
  <defs/>
  <path d="M97.83,94.32 L74.15,111.41 L41.22,112.66 L29.61,114.39 C29.61,114.39 36.04,118.31 42.31,120.66 C48.58,123.01 54.23,122.23 54.23,122.23 C54.23,122.23 58.46,124.43 71.01,123.48 C83.56,122.54 89.05,117.68 89.05,117.68 L90.62,118.46 C90.62,118.46 95.01,117.52 100.19,113.91 C105.37,110.3 115.93,100.13 120.11,88.66 C124.67,76.12 124.66,64.04 123.4,55.57 C123.3,54.91 123.37,52.68 123.02,52.65 C118.86,52.25 98.26,94.03 97.83,94.32 Z" fill="#C5B3AF"/>
  <path d="M33.84,15.9 L19.25,23.74 L15.02,28.44 L5.92,48.04 C5.92,48.04 5.29,49.29 5.29,50.71 C5.29,52.12 5.29,54.32 5.29,54.32 C5.29,54.32 4.28,65.97 3.89,67.66 C3.42,69.7 3.42,71.89 4.36,73.62 C5.3,75.35 11.73,90.56 11.73,90.56 L17.85,102.64 C17.85,102.64 20.2,106.4 23.18,109.38 C26.16,112.36 31.49,114.4 31.49,114.4 C31.49,114.4 34.54,116.55 39.49,116.6 C43.67,116.64 46.96,115.44 46.96,115.44 C46.96,115.44 51.86,118.93 61.72,118.8 C73.94,118.64 74.62,114.87 74.62,114.87 C74.62,114.87 81.8,116.14 92.15,109.39 C102.5,102.65 107.87,89.46 107.87,89.46 C107.87,89.46 112.42,87.89 115.4,81.78 C118.38,75.67 123.4,60.61 123.4,55.59 C123.4,52.06 122.4,45.02 118.83,37.45 C117.48,34.59 115.81,32.35 113.83,30.03 C112.36,28.31 109.93,25.54 109.93,25.54 C109.93,25.54 107.87,22.03 106.77,20.77 C105.67,19.51 102.22,16.85 102.22,16.85 L85.44,7.75 C85.44,7.75 81.21,5.4 78.85,4.77 C76.5,4.14 33.84,15.9 33.84,15.9 Z" fill="#D8CDC9"/>
  <path d="M99.4,31.43 C95.59,33.04 86.51,37.85 86.83,44.91 C87.15,51.97 90.31,53.86 91.56,68.44 C92.81,83.03 90.15,92.12 91.09,93.38 C92.03,94.63 98.8,92.06 102.99,86.29 C106.91,80.88 109.76,69.39 109.76,69.39 C109.76,69.39 114.46,67.82 118.4,60.46 C121.44,54.77 122.21,50.68 122.03,46.81 C121.91,44.15 118.97,34.99 114.57,31.2 C110.82,27.98 103.86,29.55 99.4,31.43 Z" fill="#F2EEEC"/>
  <path d="M5.93,48.06 C5.93,48.06 17.69,53.39 33.85,57.31 C50.01,61.23 66.63,64.21 70.08,64.84 C73.53,65.47 76.04,64.21 76.82,62.49 C77.6,60.76 77.73,51.12 75.1,47.66 C73.28,45.26 69.36,42.16 69.36,42.16 L41.05,37.08 L16.43,29.87 L15.02,28.46 C15.02,28.46 11.26,32.07 8.9,36.93 C6.54,41.79 5.93,48.06 5.93,48.06 Z" fill="#F1EDEC"/>
  <path d="M5.26,54.32 C6.12,54.96 39.93,64.46 39.93,64.46 C39.93,64.46 78.45,71.14 78.45,71.91 C78.45,72.68 76.78,81.93 72.41,84.62 C68.04,87.32 46.43,85.16 38.9,83.59 C17.33,79.11 3.85,68.58 3.85,68.58 C3.85,68.58 2.95,65.11 3.46,60.36 C3.73,57.9 5.26,54.32 5.26,54.32 Z" fill="#F1EDEC"/>
  <path d="M6.03,76.28 L19.26,84.37 L46.35,91.43 L75.63,91.69 C75.63,91.69 77.43,94.13 77.04,95.93 C76.65,97.73 74.47,103.76 68.31,106.33 C62.72,108.66 43.28,111.1 27.35,105.3 C13.23,100.16 10.53,92.84 7.96,87.07 C5.32,81.13 6.03,76.28 6.03,76.28 Z" fill="#F1EDEC"/>
  <path d="M53.25,29.74 L66.01,16.83 L84.03,9.02 C84.03,9.02 88.68,9.17 89.89,9.47 C91.1,9.77 94.24,10.67 98.9,13.52 C103.56,16.37 106.77,20.76 106.77,20.76 C106.77,20.76 101.9,16.37 88.39,23.28 C74.88,30.19 74.72,33.94 72.17,34.54 C69.62,35.14 64.25,34.69 60.46,33.79 C54.15,32.29 53.25,29.74 53.25,29.74 Z" fill="#F1EDEC"/>
  <path d="M20.7,23.53 C20.7,23.53 22.33,25.6 26.91,26.69 C31.48,27.78 35.95,26.91 35.95,26.91 C35.95,26.91 37.26,28.54 41.4,29.41 C45.54,30.28 47.17,29.3 48.04,28.21 C48.91,27.12 55.12,17.43 64.05,11.98 C72.98,6.53 81.09,5.54 81.09,5.54 C81.09,5.54 75.83,2.92 68.32,3.35 C60.81,3.78 54.46,6.22 54.46,6.22 L50.87,6.55 C50.87,6.55 45.32,5.9 38.45,8.84 C31.58,11.78 24.18,18.53 24.18,18.53 L20.7,23.53 Z" fill="#F1EDEC"/>
  <path d="M66.85,41.32 C66.85,41.32 73.53,39.43 76.21,38.03 C78.89,36.63 87.69,32.16 87.69,32.16 C87.69,32.16 84.25,38.29 83.99,41.98 C83.71,45.98 84.66,54.1 84.66,54.1 L82.75,53.02 C82.75,53.02 78.08,48.57 76.3,47.16 C74.52,45.75 66.85,41.32 66.85,41.32 Z" fill="#C5B3AF"/>
  <path d="M86.49,74.5 C86.28,74.48 65.48,72.65 30.7,64.12 C10.33,59.12 5.08,55.78 4.75,55.57 C4.75,55.57 5.01,54.98 5.15,53.71 C5.28,52.44 5.3,51.15 5.3,51.15 C5.38,51.2 12.09,55.34 31.68,60.14 C66.12,68.59 86.64,70.4 86.84,70.42 L86.49,74.5 Z" fill="#9B8D8B"/>
  <path d="M61.73,94.28 C51.56,94.28 39.06,93.04 25.97,88.82 C13.24,84.72 6.5,79.75 6,79.4 C6,79.4 6.11,78.46 5.75,77.01 C5.39,75.56 4.51,73.85 4.51,73.85 C4.63,73.93 15.09,81 27.23,84.91 C57.13,94.55 84.69,87.85 84.96,87.78 L85.96,91.76 C85.28,91.94 75.7,94.28 61.73,94.28 Z" fill="#9B8D8B"/>
  <path d="M79.75,115.58 C76.48,113.71 73.95,110.97 73.92,110.94 L73.3,110.27 L72.39,110.39 C72.24,110.41 57.01,112.37 35.6,106.48 C25.39,103.67 16.48,99.08 14.76,97.9 C14.76,97.9 15.48,101.86 18.35,103.37 C20.59,104.55 23.31,105.82 26.27,107.01 C26.5,107.86 27.26,110.57 28.73,113.13 C31.01,117.09 36.81,118.28 36.81,118.28 C36.78,118.24 33.37,113.96 31.96,110.91 C31.6,110.12 31.34,109.42 31.14,108.8 C32.3,109.18 33.47,109.54 34.65,109.87 C37.01,110.52 39.29,111.07 41.48,111.55 C42.28,113.1 43.94,115.91 46.71,118.65 C47.85,119.78 49.42,121.23 51.24,122.02 C55.31,123.78 58.98,123.38 58.98,123.38 C58.92,123.33 53.39,119.8 50.44,116.87 C49.33,115.77 47.52,113.58 46.8,112.57 C59.89,114.83 69.12,114.23 71.95,113.95 C72.99,114.98 75.23,117.03 77.99,118.61 C79.6,119.53 81.05,120.36 82.65,120.71 C85.83,121.4 87.94,119.13 87.94,119.13 C87.92,119.11 83.36,117.63 79.75,115.58 Z" fill="#9B8D8B"/>
  <path d="M73.8,113.75 L71.47,110.5 L72.63,112.13 L71.46,110.51 C71.58,110.42 83.7,101.32 84.79,77.35 C85.87,53.37 76.7,44.16 76.6,44.07 L79.36,41.18 C79.79,41.59 89.96,51.54 88.78,77.54 C87.61,103.57 74.37,113.34 73.8,113.75 Z" fill="#9B8D8B"/>
  <path d="M84.22,120.83 L82.86,117.4 C83.65,117.27 103.14,113.56 107.43,77.92 C110.72,50.59 95.04,27.93 94.88,27.71 L98.15,25.4 C98.83,26.37 114.89,49.49 111.4,78.4 C106.72,117.25 85.22,120.86 84.22,120.83 Z" fill="#9B8D8B"/>
  <path d="M94.47,25.4 C85.07,29.06 78.9,37.45 76.91,40.48 C73.5,40.22 63.22,39.3 51.14,36.92 C53.42,32.86 59.09,23.97 67.88,18.16 C79.56,10.45 89.35,9.43 89.58,9.37 C89.81,9.31 86.68,6.31 83.82,6.9 C78.7,7.96 72.11,10.59 65.68,14.83 C55.2,21.76 49,32.36 47.05,36.08 C44.12,35.44 41.12,34.71 38.11,33.89 C37.16,33.63 36.24,33.37 35.34,33.12 C36.75,29.63 39.89,22.54 43.77,17.77 C51.39,8.43 60.43,4.53 60.53,4.49 C60.53,4.49 54.74,2.86 49.68,6.56 C46.76,8.7 43.63,11.62 40.68,15.24 C36.28,20.64 32.88,28.47 31.48,32.01 C27.12,30.74 23.58,29.65 20.78,28.73 C21.53,27.03 22.59,24.76 23.73,22.78 C25.84,19.09 28.15,15.44 28.17,15.41 C28.17,15.41 23.02,17.22 20.06,22.1 C18.71,24.31 18.24,25.82 17.45,27.63 C16.97,27.47 16.58,27.28 16.14,27.31 C13.77,27.44 12.88,30.9 12.88,30.9 C13.17,31.03 17.67,32.52 37.04,37.85 C57.42,43.45 77.69,44.67 77.89,44.68 L79.15,44.75 L79.78,43.66 C79.84,43.56 86,33.12 95.97,29.24 C104.37,25.97 111.37,27.25 111.44,27.26 C111.44,27.26 111.18,26.27 110.52,25.18 C110.03,24.38 108.64,23.57 108.64,23.57 C108.31,23.48 104.15,21.64 94.47,25.4 Z" fill="#9B8D8B"/>
</svg>
